X:461
T:Reel 461
M:4/4
K:Dmix
L:1/8
AG|FDEC A,DD2|BGcF ECCE|FDEC A,DD2| (3EEG AB cGEG|FDEC A,DD2|EGGB c2AG|FGEC  (3DA,B, CD|EcBG AFD2|FGAB c2AF|EGGc cBcG|ECCG EC (3CCC |EG (3ABc Bcdc|cdec BcBc|ECCD EFG2|FGEC DC (3EFG |cdBG AF (3FED |
